X: 1
T: Rockabilly Reel
C:
R: reel
S: Fiddle Hell Online 2021-10-29
Z: 2022 John Chambers <jc:trillian.mit.edu>
M: C|
L: 1/8
K: A
%%continueall
|:\
"A"A,2CE- EA,CE | "D"FEDF "A"E2FE | "D"D2FA- ADFA | "C"AB=cB "G"A=GEC |
"A"A,2CE- EA,CE | "D"FEDF "A"E4 | "E"B2c2 d2B2 |1 "D"D2F2 ADFA :|2 "D"A=GEG "(A)"A4 "^Fine"|][K:=f=c=g]
[K:Am]|:\
"Am"e2e2 efed | "G"Bd2B- BedB | "F"c3d cBAc | "T"B3^G EGBd |
"Am"e2e2 efed | "G"Bd2d- dedB | "F"c2cd cBA!coda!c |[1 "E"B3^G EGBd :|2 "E"B^GEG "Am"A4 "^D.C."y|]
!coda!|| "E"B2^G2 E2"^D.C. al Fine"^CB, || y8
